X: 269
T: Missa De beata virgine (1570) Et in Spiritum Credo
C: Giovanni Perluigi da Palestrina
L: 1/4
M: 4/2
N: Derived from Credo_16_e.krn
Q: "Credo"
V: 1 clef=treble
V: 2 clef=treble
V: 3 clef=treble
V: 4 clef=treble-8
V: 5 clef=treble-8
V: 6 clef=bass
K: F
[V:1] e8 | 
[V:2] =B8 | 
[V:3] ^G8 | 
[V:4] =B6e2- | 
[V:5] e8 | 
[V:6] E,8 | 
[V:1] e4^f3f | 
[V:2] ^c4d3d | 
[V:3] A4A3A | 
[V:4] e2A2>A2d2- | 
[V:5] e4d3d | 
[V:6] A,4D,3D, | 
[V:1] g2GA=BGc2- | 
[V:2] d2d4e2 | 
[V:3] =B4z2G2 | 
[V:4] dc=BAG4 | 
[V:5] =B2d4c2 | 
[V:6] G,2G,4C,2 | 
[V:1] c2=B2e4- | 
[V:2] d4c4 | 
[V:3] G2G2E2A2- | 
[V:4] G2=B2A=BcA | 
[V:5] d2G2c3d | 
[V:6] G,4A,4 | 
[V:1] e2e2e4- | 
[V:2] =B4A4 | 
[V:3] AG/ ^F/^G2A4- | 
[V:4] =B2=B2c4 | 
[V:5] e4z2e2 | 
[V:6] E,4A,4 | 
[V:1] e4z4 | 
[V:2] z2A4A2 | 
[V:3] A4z2D2 | 
[V:4] e4f4 | 
[V:5] A2ccd4 | 
[V:6] z2A,2D,2D2- | 
[V:1] e4f4 | 
[V:2] A2A2FGA=B | 
[V:3] E2A4A2 | 
[V:4] e4d4 | 
[V:5] A4z2d2 | 
[V:6] D2^C2D4 | 
[V:1] e4d4 | 
[V:2] cdecf4 | 
[V:3] A4F3G | 
[V:4] c4d4 | 
[V:5] e2A4d2 | 
[V:6] A,4D,4 | 
[V:1] c2e4d2- | 
[V:2] e2>d2c2=B2 | 
[V:3] A4G4 | 
[V:4] A2>=B2c2G2 | 
[V:5] e2cdefgf | 
[V:6] z8 | 
[V:1] d2^c2d4 | 
[V:2] A8 | 
[V:3] z2E2^F4 | 
[V:4] A4z4 | 
[V:5] ede2d4 | 
[V:6] z8 | 
[V:1] z8 | 
[V:2] =B8 | 
[V:3] G6G2 | 
[V:4] z2=B2>c2d2 | 
[V:5] G4=B3c | 
[V:6] E,2>F,2G,4- | 
[V:1] z8 | 
[V:2] z8 | 
[V:3] G4G2G2 | 
[V:4] =B2e2d2c2 | 
[V:5] d2c2=B2e2 | 
[V:6] G,2C,2G,2C,2 | 
[V:1] z8 | 
[V:2] z8 | 
[V:3] F2A4G2- | 
[V:4] A2>=B2c2c2 | 
[V:5] d2c4G2 | 
[V:6] D,2F,4E,2 | 
[V:1] z4=B3c | 
[V:2] z8 | 
[V:3] G2^F2G4 | 
[V:4] d4d4 | 
[V:5] A4G4 | 
[V:6] D,4G,4- | 
[V:1] d4=B4- | 
[V:2] =B2>c2d4 | 
[V:3] z2G2>G2G2 | 
[V:4] z8 | 
[V:5] z8 | 
[V:6] G,8 | 
[V:1] B2c2=B2A2 | 
[V:2] d2e2d2c2 | 
[V:3] G2C2G2A2 | 
[V:4] z8 | 
[V:5] z8 | 
[V:6] z8 | 
[V:1] ^G4A4 | 
[V:2] =B4c2c2 | 
[V:3] E4z4 | 
[V:4] z8 | 
[V:5] z2e2A2a2- | 
[V:6] z8 | 
[V:1] E2e2>d2c=B | 
[V:2] =B4c4- | 
[V:3] E4A,2A2- | 
[V:4] z8 | 
[V:5] a2^g2a3g | 
[V:6] z8 | 
[V:1] A2c4=B2 | 
[V:2] c4d4 | 
[V:3] A2G2F4 | 
[V:4] z8 | 
[V:5] f2e2d4 | 
[V:6] z8 | 
[V:1] c4z4 | 
[V:2] e4z4 | 
[V:3] G2E2A4- | 
[V:4] e4f4 | 
[V:5] c4d4 | 
[V:6] z2A,2D,2D2- | 
[V:1] z4z2G2 | 
[V:2] z8 | 
[V:3] A2A,2C2D2 | 
[V:4] e6d2 | 
[V:5] A2a4g2- | 
[V:6] D2C4=B,2 | 
[V:1] A2c2=B2B2 | 
[V:2] z8 | 
[V:3] E2C2z4 | 
[V:4] c4d2e2- | 
[V:5] g2^f2g4- | 
[V:6] A,4G,4 | 
[V:1] A4A4 | 
[V:2] z8 | 
[V:3] z8 | 
[V:4] e2d4c2 | 
[V:5] g2f2e3^f | 
[V:6] A,8 | 
[V:1] z2=B4A2 | 
[V:2] =B2>c2d2d2 | 
[V:3] z2G4^F2 | 
[V:4] d4z4 | 
[V:5] g4d4 | 
[V:6] G,4z4 | 
[V:1] =B2>A2G2A2 | 
[V:2] d8 | 
[V:3] G2G,A,=B,G,D2- | 
[V:4] =B2>c2d2d2 | 
[V:5] z2=B4A2 | 
[V:6] G,6^F,2 | 
[V:1] G2=B2A4 | 
[V:2] d8 | 
[V:3] DG,G2F2F2- | 
[V:4] d4d4 | 
[V:5] =B2G2A4- | 
[V:6] G,2G,2D,4 | 
[V:1] A4G4 | 
[V:2] c4e4 | 
[V:3] F2F2E3F | 
[V:4] A4c4 | 
[V:5] A2c4G2 | 
[V:6] F,2F,2C,4 | 
[V:1] z4=B4 | 
[V:2] d8 | 
[V:3] G4G4 | 
[V:4] d4z4 | 
[V:5] =B2>c2d2G2 | 
[V:6] G,8 | 
[V:1] ^c4d2d2 | 
[V:2] z2A2A2A2 | 
[V:3] E4F4 | 
[V:4] z2A2d2d2 | 
[V:5] A4z4 | 
[V:6] z8 | 
[V:1] d4d2e2- | 
[V:2] =B4B2c2 | 
[V:3] G2G2G4 | 
[V:4] G4G2c2 | 
[V:5] z8 | 
[V:6] z8 | 
[V:1] e2d4c2 | 
[V:2] =B2A2B2c2 | 
[V:3] G2A4G2- | 
[V:4] e2f2e4 | 
[V:5] z8 | 
[V:6] z8 | 
[V:1] =B2A3G/ ^F/^G2 | 
[V:2] d4z4 | 
[V:3] G2F2E2D2- | 
[V:4] d4z4 | 
[V:5] z2d2c2=B2 | 
[V:6] z8 | 
[V:1] A8 | 
[V:2] e4f4 | 
[V:3] DC/ =B,/^C2D4 | 
[V:4] z2a2f2d2 | 
[V:5] A4z2f2 | 
[V:6] z4z2D2 | 
[V:1] z8 | 
[V:2] e2e2d2d2 | 
[V:3] z8 | 
[V:4] e2c2d4 | 
[V:5] g2a2f2g2 | 
[V:6] C2A,2B,2B,2 | 
[V:1] z8 | 
[V:2] c4d2e2- | 
[V:3] z2A2G2E2 | 
[V:4] z2A2=B2c2 | 
[V:5] a4z2A2 | 
[V:6] A,4z2A,2 | 
[V:1] z4e4 | 
[V:2] edd4^c2 | 
[V:3] F2F2E2A,2 | 
[V:4] A4z2a2 | 
[V:5] c2d2e4 | 
[V:6] F,2D,2A,4 | 
[V:1] f4e2e2 | 
[V:2] d4z4 | 
[V:3] A2>F2G2A2 | 
[V:4] f2d2e2c2 | 
[V:5] d4z2a2 | 
[V:6] z2D2C2A,2 | 
[V:1] d2d2c2e2- | 
[V:2] z8 | 
[V:3] DEFGA4- | 
[V:4] d4z2c2 | 
[V:5] f2d2e2e2 | 
[V:6] B,2B,2A,2A,2 | 
[V:1] e2d4^c2 | 
[V:2] z8 | 
[V:3] A4-A4- | 
[V:4] f4e4 | 
[V:5] A2a2>g2e2 | 
[V:6] F,2D,2A,4 | 
[V:1] d8 | 
[V:2] z4=B4 | 
[V:3] A4z4 | 
[V:4] d8 | 
[V:5] ^f2^f2g3f | 
[V:6] D,4G,4 | 
[V:1] z8 | 
[V:2] c4d3d | 
[V:3] E4F4 | 
[V:4] z4z2d2 | 
[V:5] e2A2A2A2 | 
[V:6] A,4D,2D,2 | 
[V:1] z8 | 
[V:2] d2d2c2e2 | 
[V:3] G2>G2G2G2 | 
[V:4] d2d2e2e2 | 
[V:5] =B3A/ =B/c2G2 | 
[V:6] G,4C,4 | 
[V:1] z8 | 
[V:2] d4=B4 | 
[V:3] F2A2G4 | 
[V:4] A2A2=B4 | 
[V:5] d2d2d4 | 
[V:6] D,2D,2G,4 | 
[V:1] z8 | 
[V:2] c2A2=B2c2 | 
[V:3] E2F2D2E2 | 
[V:4] G2A2G2g2 | 
[V:5] c2c2=B2G2 | 
[V:6] C,2F,2G,2E,2 | 
[V:1] z8 | 
[V:2] d2e2c2d2 | 
[V:3] F2G2A2F2 | 
[V:4] f2e2f4 | 
[V:5] A2c4F2 | 
[V:6] D,2C,2F,2D,2 | 
[V:1] z8 | 
[V:2] e4d4- | 
[V:3] G2A4G2- | 
[V:4] e4A2d2- | 
[V:5] c=BAG^F2G2 | 
[V:6] C,4D,4- | 
[V:1] z8
[V:2] d8
[V:3] G2^F2G4
[V:4] dcA2=B4
[V:5] A4G4
[V:6] D,4G,4

